X:71
T:Morris simple chords 3
M:3/4
L:1/8
K:F
CF>FF AG | FA<cC F2 | FA2G F2 | CF>FF AG | FA<cC F>C |
FA2G F2 | F>F FA GF | A<c CF2F | A2 GF2C |
F>F FA GF | A<c CF>CF | A2 GF2c2 |B AG FA |
c2 G2 GG2 |A2< B2c2 |B AG FA<c |C F>C FA2 |
G F2 c2 | BA GF Ac2 |G2G G2 | A2<B2 c2 |
BA GF A<c | CF>CF A2 | GF2 |


